public/photos-light.svg

<svg xmlns="http://www.w3.org/2000/svg" xmlns:vectornator="http://vectornator.io" xml:space="preserve" stroke-miterlimit="10" style="fill-rule:nonzero;clip-rule:evenodd;stroke-linecap:round;stroke-linejoin:round" viewBox="0 0 657.356 657.356"><g vectornator:layerName="Layer 1"><g vectornator:layerName="Group 1"><path vectornator:layerName="Rectangle 1" fill="none" stroke="#000" stroke-linecap="butt" stroke-linejoin="miter" stroke-width="25" d="M17.39 142.894C17.39 73.58 73.58 17.39 142.894 17.39h371.568c69.314 0 125.504 56.19 125.504 125.504v371.568c0 69.314-56.19 125.504-125.504 125.504H142.894c-69.314 0-125.504-56.19-125.504-125.504V142.894Z"/><path vectornator:layerName="Oval 1" fill="none" stroke="#000" stroke-linecap="butt" stroke-linejoin="miter" stroke-width="25" d="M183.576 328.678c0-80.138 64.964-145.102 145.102-145.102s145.103 64.964 145.103 145.102-64.965 145.103-145.103 145.103-145.102-64.965-145.102-145.103Z"/><path vectornator:layerName="Line 1" stroke="#000" stroke-linecap="butt" stroke-linejoin="miter" stroke-width="25" d="M328.678 17.39v166.186"/><path vectornator:layerName="Line 2" stroke="#000" stroke-linecap="butt" stroke-linejoin="miter" stroke-width="25" d="M328.678 473.781v166.185"/><path vectornator:layerName="Oval 2" d="M487.299 121.852c0-20.489 16.61-37.1 37.099-37.1 20.489 0 37.099 16.611 37.099 37.1s-16.61 37.099-37.099 37.099c-20.489 0-37.099-16.61-37.099-37.099Z"/></g></g></svg>

<?xml version="1.0" encoding="UTF-8" standalone="no"?>
<!DOCTYPE svg PUBLIC "-//W3C//DTD SVG 1.1//EN" "http://www.w3.org/Graphics/SVG/1.1/DTD/svg11.dtd">
<!-- Created with Vectornator (http://vectornator.io/) -->
<svg height="100%" stroke-miterlimit="10" style="fill-rule:nonzero;clip-rule:evenodd;stroke-linecap:round;stroke-linejoin:round;" version="1.1" viewBox="0 0 657.356 657.356" width="100%" xml:space="preserve" xmlns="http://www.w3.org/2000/svg" xmlns:vectornator="http://vectornator.io" xmlns:xlink="http://www.w3.org/1999/xlink">
<defs/>
<g id="Layer-1" vectornator:layerName="Layer 1">
<g opacity="1" vectornator:layerName="Group 1">
<path d="M17.39 142.894C17.39 73.5803 73.5803 17.39 142.894 17.39L514.462 17.39C583.776 17.39 639.966 73.5803 639.966 142.894L639.966 514.462C639.966 583.776 583.776 639.966 514.462 639.966L142.894 639.966C73.5803 639.966 17.39 583.776 17.39 514.462L17.39 142.894Z" fill="none" opacity="1" stroke="#000000" stroke-linecap="butt" stroke-linejoin="miter" stroke-width="25" vectornator:layerName="Rectangle 1"/>
<path d="M183.576 328.678C183.576 248.54 248.54 183.576 328.678 183.576C408.816 183.576 473.781 248.54 473.781 328.678C473.781 408.816 408.816 473.781 328.678 473.781C248.54 473.781 183.576 408.816 183.576 328.678Z" fill="none" opacity="1" stroke="#000000" stroke-linecap="butt" stroke-linejoin="miter" stroke-width="25" vectornator:layerName="Oval 1"/>
<path d="M328.678 17.39L328.678 183.576" fill="#000000" fill-rule="nonzero" opacity="1" stroke="#000000" stroke-linecap="butt" stroke-linejoin="miter" stroke-width="25" vectornator:layerName="Line 1"/>
<path d="M328.678 473.781L328.678 639.966" fill="#000000" fill-rule="nonzero" opacity="1" stroke="#000000" stroke-linecap="butt" stroke-linejoin="miter" stroke-width="25" vectornator:layerName="Line 2"/>
<path d="M487.299 121.852C487.299 101.363 503.909 84.7528 524.398 84.7528C544.887 84.7528 561.497 101.363 561.497 121.852C561.497 142.341 544.887 158.951 524.398 158.951C503.909 158.951 487.299 142.341 487.299 121.852Z" fill="#000000" fill-rule="nonzero" opacity="1" stroke="none" vectornator:layerName="Oval 2"/>
</g>
</g>
</svg>
